X: 296
T: Bestenigâr Peşrev
C: Tatyos Efendi
O: Turkey
F: http://compmusic.upf.edu/node/140
N: bestenigar--pesrev--fahte----tatyos_efendi
N: makam= bestenigar
N: form= pesrev
N: usul= fahte = 20/4
M: 20/4
L: 1/16
K: C _2/4B _3/4d  
Q: 1/4=72
%%MIDI tuningsystem comma53
^FGFE F2G2 A8  | ABAG A2B2 c8  | cdcB c2d2 c3B A2B2  | 
w:  1. HANE  |   |   | 
c4 d2e2 d3c B2c2  | B4 gfed edcB c4  | \
w:   |   | 
c3d e2f2 g_7/8agf e2g2  | 
w:   | 
e2f4e2 gffe f2g2  | f4 e2f2 g2_7/8a4{b}ag  | \
w:   |   | 
g3f f3e z2f4fe  | 
w:   | 
f3e e3d d3c c3B  | gfed c2d2 cBA2 B2c2  | \
w:   |   | 
B4 c4 cdcB c2d2  | 
w:   | 
c3B A4 BcBA B2c2  | ABAG ^F4 z2F4e2  | \
w:   |   | 
d3c B2c2 B4 c4  | 
w:   | 
z4 c2d2 cdcB c2d2  | cdcB A4 dcBA B2c2  | \
w:   |   | 
A3G ^F4 F2d4cB  | 
w:   | 
ABc4BA A3G AGG^F  | z0 z0 ^F6c2 B4 c4  | \
w:   |  2. HANE  | 
z4 c2d2 e2f4ed  | 
w:   | 
cde4dc Bcd4cB  | ABc4BA A4 gffe  | e3d d3c c3B A4  | 
w:   |   |   | 
=B2c2 B2A2 B=dcB BAA^G  | A4 ^G2A2 G4 A4  | \
w:   |   | 
=B6c2 BcBA ^G2A2  | 
w:   | 
=B6e2 =d4 {f}e4  | c3=B BAA^G A6E2  | \
w:   |   | 
F3E c=BA2 A8  | z4 B2c2 B4 c4  | 
w:   |   | 
d2e4dc z2g2 f2e2  | f6e2 e3d d3c  | cde4f2 edcd e4  | 
w:   |   |   | 
c2d2 c3B A2B2 c4  | z4 c2d2 cdcB c2d2  | \
w:   |   | 
cdcB A4 dcBA B2c2  | 
w:   | 
A3G ^F4 F2d4cB  | ABc4BA A3G AGG^F  | \
w:   |   | 
^F6^f2 ^e2g2 f4  | 
w:  3. HANE  | 
z4 ^f2g2 f2^e2 =d3^c  | B2^A2 G2^F2 F2G2 A2B2  | \
w:   |   | 
^c2=d2 ^e2^f2 gagf g2a2  | 
w:   | 
g3^f ^e2f2 e2f2 gagf  | ^f6^e2 =d2e2 f4  | \
w:   |   | 
z4 ^f2g2 a8  | ac'ba a3g g3^f fgf^e  | 
w:   |   | 
^f4 g4 f3^e =d4  | =d2g4^f^e e3d d3^c  | \
w:   |   | 
^c=d^e^f g2fe edcB c4  | 
w:   | 
z4 A2=d2 ^c3=B A4  | ABAG A2B2 A3G G3^F  | \
w:   |   | 
^F2^EF GAGF F8  | 
w:   | 
^F3G A2B2 c6d2  | dcB2 A2G2 A2B2 c4  | \
w:   |   | 
z4 c2d2 cdcB c2d2  | 
w:   | 
cdcB A4 dcBA B2c2  | A3G ^F4 F2d4cB  | \
w:   |   | 
ABc4BA A3G AGG^F  | 
w:   | 
^F6=d2 ^c4 d4  | z4 B2^c2 =d2e2 d2c2  | \
w:  4. HANE  |   | 
B3^A B2^c2 B4 c2=d2  | ^c4 =d4 e2f2 e2d2  | 
w:   |   | 
^c2=d2 efed d8  | z4 c2=d2 e8  | (3e2f2g2 e3=d dedc d4  | 
w:   |   |   | 
z2=d4a2 a3g g3f  | f3e e3=d {e}d3c d2e2  | \
w:   |   | 
=d3c B2c2 B4 dedc  | 
w:   | 
c8 z4 e2f2  | g8 gfe2 f2g2  | _7/8a6b2 g3f f3e  | \
w:   |   |   | 
e3d d3c c3_7/8a g2a2  | 
w:   | 
(3g2f2e2 f2g2 (3f2e2d2 c2d2  | (3c2B2A2 B2c2 B4 c4  | \
w:   |   | 
z4 c2d2 cdcB c2d2  | 
w:   | 
cdcB A4 dcBA B2c2  | A3G ^F4 F2d4cB  | \
w:   |   | 
ABc4BA A3G AGG^F  | 
w:   | 
^F12 z4  | |


